X: 1
T: Mrs. Adye's Strathspey
S: as played by Angus Grant "Highland Fiddle"
Z: T. Traub, 6-30-2012
B: see also Ryan/Cole Mammoth Collection
R: strathspey
M: C
L: 1/8
K: Bb
|:\
"Bb"B2 ~B2 "F"c>A F2 | "Gm"B2 "C"c>B "F"A<F F2 |\
"Eb"G2 B>G "Bb"F>DB,>D | "Eb"~E2"F"F>E "Bb"D<B, B,2 :|
"Bb"(3dcB f>f b>fd>B | "C"A<cc>B "F"A<F F2 |\
"Eb"G2 B>G "Bb"F>DB,>D | "Cm"~E2 "F"F>E "Bb"D<B, B,>B |
"Bb"(3dcB f>f b>fd>B | "C"A<cc>B "F"A<F F2 |\
"Eb"G<EE>G "Bb"F<DD>F | "F"E<CC>E "Bb"D<B, B,2 |]
